X: 13818
T: Four Masters, The
R: hornpipe
M: 4/4
K: Dmajor
(3FG^G|A^GA^A B=Ged|cAfe dAAG|FDA^A BEGF|EDCB, A,B, (3CB,A,|
FDA^A BGed|cAfe dAAG|FAcB AG (3A,B,C|(3DFE DC D2:|
F2|Bcdc BAFA|BcdB AAFA|BcdB AFDF|EDCB, A,B, (3CB,A,|
FDA^A BGed|cAfe dAAG|FDA^A BEGF|EDCB, A,B, (3CB,A,|
FDA^A BGed|cAfe dAAG|FAcB AG (3A,B,C|(3DFE DC D2||

